X: 1
T:Mrs MacPherson of Inveran  "CYMRU"
M:C
L:1/8
Q:80
C:P/M G.S. McLennan
S:Reel
K:HP
| g|
{afg}f2a3/2f/2{g}df{g}Ad|
{gfg}f2a3/2f/2{g}f2{e}{A}e3/2f/2|
{gef}e2{a}g3/2e/2{g}ce{g}A{d}c|  !
{gef}e2fg{afg}f2{dc}d3/2g/2| |
{afg}f2a3/2f/2{g}df{g}Ad|
{gfg}f2a3/2f/2{g}f2{e}{A}e3/2f/2|  !
{gef}e2{a}g3/2e/2{g}ce{g}A{d}c|
{gef}e2fg{afg}f2{dc}d|]
A|  !
{Gdc}d2{e}A3/2d/2{g}df{g}Ad|
{gdc}d2{e}Ad{gde}d2{cG}c3/2d/2|
{gcd}c2{g}A{d}c{g}ce{g}A{d}c|  !
{gcd}c2{e}A{d}c{gef}e2{dc}d3/2A/2| |
{Gdc}d2{e}Ad{g}df{g}Ad|
{gdc}d2{e}Ad{gde}d2{cG}c3/2d/2|  !
{g}c2{GdGe}AB{g}cd{g}ed|
{a}gf{g}ea{fg}f2{dc}d|]
g|  !
{afg}f2{a}gfa2{fg}f3/2g/2|
a2{fg}fg{afg}f2{e}{A}e3/2f/2|
{gef}e2{g}fe{a}g2{e}{A}e3/2f/2|  !
{a}g2{e}{A}e3/2f/2{gef}e2{dc}d3/2g/2| |
{afg}f2{a}gfa2{fg}f3/2g/2|
a2{fg}fg{afg}f2{e}{A}e3/2f/2|  !
{gef}e2{g}fe{a}g2{e}{A}e3/2f/2|
{a}g2{e}{A}e3/2f/2{gef}e2{dc}d|]
A|  !
{Gdc}d2{e}Ad{g}faef|
{g}df{g}ed{gde}d2{cG}c3/2d/2|
{gcd}c2{e}A{d}c{g}eg{a}df|  !
{g}ce{g}B{d}c{gef}e2{dc}d3/2A/2| |
{Gdc}d2{e}Ad{g}faef|
{g}df{g}ed{gde}d2{cG}c3/2d/2|  !
{gcd}c2{e}B{d}c{g}A{d}c{g}eg|
{a}face{gef}e2{dc}d|]
g|  !
{afg}f2{g}eda2{fg}f3/2g/2|
{ag}a2g{a}f{gfg}f2{e}{A}e3/2f/2|
{gef}e2{gde}dc{a}g2{e}{A}e3/2f/2|  !
{gf}g2{afg}fe{gef}e2{dc}d3/2g/2| |
{afg}f2{g}eda2{fg}f3/2g/2|
{ag}a2g{a}f{gfg}f2{e}{A}e3/2f/2|  !
{gef}e2{gde}dc{a}g2{e}{A}e3/2f/2|
{gf}g2{afg}fe{gef}e2{dc}d|]
A|  !
{Gdc}d2{e}Ad{gfg}f2{g}df|
{a}gf{gef}ed{gde}d2{cG}c3/2d/2|
{gcd}c2{e}A{d}c{gef}e2{g}ce|  !
{a}ge{gde}dc{gef}e2{dc}d3/2A/2| |
{Gdc}d2{e}Ad{gfg}f2{g}df|
{a}gf{gef}ed{gde}d2{cG}c3/2d/2|  !
{g}c{d}A{gde}dB{gef}ec{g}fd|
{a}ge{gde}dc{gef}e2{dc}d|]
